images_sukapura_svg/cmd/32/aligncenter.svg

<svg viewBox="0 0 32 32" xmlns="http://www.w3.org/2000/svg" xmlns:xlink="http://www.w3.org/1999/xlink"><linearGradient id="a" gradientTransform="translate(75 -7)" gradientUnits="userSpaceOnUse" x1="14" x2="13.79661" y1="22" y2="2.135593"><stop offset="0" stop-color="#0040dd"/><stop offset="1" stop-color="#0a84ff"/></linearGradient><linearGradient id="b" gradientTransform="matrix(-1 0 0 1 20 0)" gradientUnits="userSpaceOnUse" x1="23" x2="23" xlink:href="#a" y1="14" y2="2"/><linearGradient id="c" gradientTransform="translate(11.996728)" gradientUnits="userSpaceOnUse" x1="23" x2="23" xlink:href="#a" y1="14" y2="2"/><path d="m8.029297 2.0019535c.254373.00793.496109.1127287.675781.2929688l5 5c.388867.3896261.388867 1.0205301 0 1.4101562l-5 4.9999995c-.628586.62726-1.70185.182939-1.703125-.705078v-3l-4.501953-.0000004c-.277 0-.5-.2229996-.5-.4999996v-3c0-.277.223-.5.5-.5l4.501953.0000004v-3c-.000209-.5628388.464747-1.0145351 1.027344-.9980469z" fill="url(#b)"/><path d="m23.967431 2.0019535c-.254373.00793-.496109.1127287-.675781.2929688l-5 5c-.388867.3896261-.388867 1.0205301 0 1.4101562l5 4.9999995c.628586.62726 1.70185.182939 1.703125-.705078v-3l4.501953-.0000004c.277 0 .5-.2229996.5-.4999996v-3c0-.277-.223-.5-.5-.5l-4.501953.0000004v-3c.000209-.5628388-.464747-1.0145351-1.027344-.9980469z" fill="url(#c)"/><path d="m8.5 15.5h15v5h-15z" fill="#fff" stroke="#98989d" stroke-linecap="round" stroke-linejoin="round"/><path d="m3.5 23.5h25v5h-25z" fill="#fc0" stroke="#e4b500" stroke-linecap="round" stroke-linejoin="round"/><rect fill="#69696e" height="2" ry="1" transform="matrix(0 -1 -1 0 0 0)" width="28" x="-30" y="-17"/></svg>

<?xml version="1.0" encoding="UTF-8" standalone="no"?>
<svg
   xmlns:dc="http://purl.org/dc/elements/1.1/"
   xmlns:cc="http://creativecommons.org/ns#"
   xmlns:rdf="http://www.w3.org/1999/02/22-rdf-syntax-ns#"
   xmlns:svg="http://www.w3.org/2000/svg"
   xmlns="http://www.w3.org/2000/svg"
   xmlns:xlink="http://www.w3.org/1999/xlink"
   xmlns:sodipodi="http://sodipodi.sourceforge.net/DTD/sodipodi-0.dtd"
   xmlns:inkscape="http://www.inkscape.org/namespaces/inkscape"
   viewBox="0 0 32 32"
   version="1.1"
   id="svg20"
   sodipodi:docname="aligncenter.svg"
   inkscape:export-filename="/home/rizmut/Dokumen/Rizmut/Github/libreoffice-style-sukapura/images_sukapura/cmd/32/aligncenter.png"
   inkscape:export-xdpi="96"
   inkscape:export-ydpi="96"
   inkscape:version="0.92.3 (unknown)">
  <metadata
     id="metadata26">
    <rdf:RDF>
      <cc:Work
         rdf:about="">
        <dc:format>image/svg+xml</dc:format>
        <dc:type
           rdf:resource="http://purl.org/dc/dcmitype/StillImage" />
        <dc:title></dc:title>
      </cc:Work>
    </rdf:RDF>
  </metadata>
  <defs
     id="defs24">
    <linearGradient
       gradientTransform="translate(75,-7)"
       id="a-367"
       gradientUnits="userSpaceOnUse"
       x1="14"
       x2="13.79661"
       y1="22"
       y2="2.1355929">
      <stop
         offset="0"
         stop-color="#0040dd"
         id="stop2206" />
      <stop
         offset="1"
         stop-color="#0a84ff"
         id="stop2208" />
    </linearGradient>
    <linearGradient
       gradientTransform="matrix(-1,0,0,1,20,4.0009771e-7)"
       inkscape:collect="always"
       xlink:href="#a-367"
       id="linearGradient864"
       x1="23"
       y1="14"
       x2="23"
       y2="2"
       gradientUnits="userSpaceOnUse" />
    <linearGradient
       inkscape:collect="always"
       xlink:href="#a-367"
       id="linearGradient883"
       gradientUnits="userSpaceOnUse"
       gradientTransform="translate(11.996728)"
       x1="23"
       y1="14"
       x2="23"
       y2="2" />
  </defs>
  <sodipodi:namedview
     pagecolor="#ffffff"
     bordercolor="#666666"
     borderopacity="1"
     objecttolerance="10"
     gridtolerance="10"
     guidetolerance="10"
     inkscape:pageopacity="0"
     inkscape:pageshadow="2"
     inkscape:window-width="1366"
     inkscape:window-height="706"
     id="namedview22"
     showgrid="true"
     inkscape:snap-smooth-nodes="true"
     inkscape:zoom="5.2149125"
     inkscape:cx="23.355963"
     inkscape:cy="-3.1157755"
     inkscape:window-x="0"
     inkscape:window-y="0"
     inkscape:window-maximized="1"
     inkscape:current-layer="svg20">
    <inkscape:grid
       type="xygrid"
       id="grid833"
       spacingx="0.5"
       spacingy="0.5"
       empspacing="2" />
  </sodipodi:namedview>
  <g
     id="g909">
    <path
       style="fill:url(#linearGradient864);fill-opacity:1;stroke:none;stroke-width:1.99761701;stroke-linecap:round;stroke-linejoin:round"
       d="m 8.029297,2.0019535 c 0.254373,0.00793 0.496109,0.1127287 0.675781,0.2929688 l 5,5 c 0.388867,0.3896261 0.388867,1.0205301 0,1.4101562 l -5,4.9999995 C 8.076492,14.332338 7.003228,13.888017 7.001953,13 V 10 L 2.5,9.9999996 C 2.223,9.9999996 2,9.777 2,9.5 v -3 C 2,6.223 2.223,6 2.5,6 l 4.501953,4e-7 v -3 C 7.001744,2.4371616 7.4667,1.9854653 8.029297,2.0019535 Z"
       id="path10-5"
       inkscape:connector-curvature="0"
       sodipodi:nodetypes="cccccccssssccc" />
    <path
       sodipodi:nodetypes="cccccccssssccc"
       inkscape:connector-curvature="0"
       id="path881"
       d="m 23.967431,2.0019535 c -0.254373,0.00793 -0.496109,0.1127287 -0.675781,0.2929688 l -5,5 c -0.388867,0.3896261 -0.388867,1.0205301 0,1.4101562 l 5,4.9999995 C 23.920236,14.332338 24.9935,13.888017 24.994775,13 v -3 l 4.501953,-4e-7 c 0.277,0 0.5,-0.2229996 0.5,-0.4999996 v -3 c 0,-0.277 -0.223,-0.5 -0.5,-0.5 l -4.501953,4e-7 v -3 C 24.994984,2.4371616 24.530028,1.9854653 23.967431,2.0019535 Z"
       style="fill:url(#linearGradient883);fill-opacity:1;stroke:none;stroke-width:1.99761701;stroke-linecap:round;stroke-linejoin:round" />
    <path
       style="stroke:#98989d;stroke-opacity:1"
       id="path2"
       stroke-linejoin="round"
       stroke-linecap="round"
       stroke="#808080"
       fill="#fff"
       d="m8.5 15.5h15v5h-15z" />
    <path
       style="fill:#ffcc00;fill-opacity:1;stroke:#e4b500;stroke-opacity:1"
       id="path4"
       stroke-linejoin="round"
       stroke-linecap="round"
       stroke="#808080"
       fill="#fff"
       d="m3.5 23.5h25v5h-25z" />
    <rect
       style="fill:#69696e;fill-opacity:1"
       id="rect6"
       y="-17"
       x="-30"
       width="28"
       transform="matrix(0 -1 -1 0 0 0)"
       ry="1"
       height="2"
       fill="#4d82b8" />
  </g>
</svg>
